X: 2
T: La Maison de Glace
C: R\'ejean Brunet 1997
M: 6/8
L: 1/8
R: 6/8
K: D
|:\
"D"D2-D DEF | "D/F#"ABA AFA |\
[1,3 "G"B3 Bcd | "A7"cBA GFE :|\
[2 "G"B3 BAG | "D"F3 "A"EFE :|\
[4 "G"B3 Bcd | "A"c3- "F#m"c3 |]
|:\
"Bm"B2-B- Bcd | "G"B3- Bcd | "D"fed "A7"edc |\
[1,3 "Bm"dcA "F#m"dcA :|[2 "A7"Adc "F#m"d2c :|[4 "A7"Adc "D"d3 |]


